X: 6
T: No_104_Stomp_Dance_Song_(f).krn
N: Derived from No_104_Stomp_Dance_Song_(f).krn
%%abc-version 2.0
%%abcx-abcm2ps-target-version 5.9.1 (29 Sep 2008)
%%abc-creator hum2abc beta
%%abcx-conversion-date 2019/03/15 08:38:45
%%humdrum-veritas 693240862
%%humdrum-veritas-data 1347866139
%%linebreak <none>
%%barnumbers 0
L: 1/8
M: 2/4
K: E clef=bass
[K:clef=bass][M:2/4]E,3/B,/ B,3/G,/ [I:setbarnb 2]| 
G,3/B,/ B,3/A,/ | 
(G,2E,2) | 
F,3E, | 
E,3/G,/ G,3/E,/ | 
E,3/F,/ F,3/E,/ | 
E,2E, z | 
E,4- | 
E,3/E,/ E,3/E,/ | 
E,3/F,/ F,3/E,/ | 
E,2E,2 | 
(F,4 | 
E,3/)G,/ G,3/E,/ | 
E,3/F,/ F,3/E,/ | 
E,2E, z | 
E,4 :|]  



